X:1
T:[ID 2-3a]
T:[ID 2-3a]
T:Bezeichnung standardisiert: Menuett Menuet ex G.#
T:Urheber unbekannt Datum in der hier transkribierten schriftlichen Quelle: 1767
C:Urheber unbekannt
C:Datum in der hier transkribierten schriftlichen Quelle: 1767
L:1/8
M:3/4
K:G
V:1 treble 
V:1
 GGBBdd | g2 d4 | eeddcc | BBAA G2 | d2 B4 | c2 A4 | BddccB | B2 A4 :: A2 AAAA | A3 B c2 | %10
 B2 BBBB | B3 c d2 | dBBA G2 | dBBA G2 | AcBAGF | G4 :| %16

